packages/ui-icons/svg/Line/note-dark.svg

<svg viewBox="0 0 1920 1920" version="1.1" xmlns="http://www.w3.org/2000/svg">
    <path d="M1783.68,1468.23529 L1468.23529,1783.68 L1468.23529,1468.23529 L1783.68,1468.23529 Z M1242.35294,1129.41176 L1242.35294,1242.35294 L338.823529,1242.35294 L338.823529,1129.41176 L1242.35294,1129.41176 Z M1581.28941,790.588235 L1581.28941,903.529412 L338.823529,903.529412 L338.823529,790.588235 L1581.28941,790.588235 Z M621.176471,0 C714.578824,0 790.588235,76.0094118 790.588235,169.411765 C790.588235,195.501176 784.150588,219.896471 773.647059,242.032941 L773.647059,242.032941 L999.981176,468.254118 L920.018824,548.216471 L693.797647,321.882353 C671.661176,332.385882 647.265882,338.823529 621.176471,338.823529 C527.774118,338.823529 451.764706,262.814118 451.764706,169.411765 C451.764706,76.0094118 527.774118,0 621.176471,0 Z M1016.47059,225.882353 L1016.47059,338.823529 L1807.05882,338.823529 L1807.05882,1355.29412 L1355.29412,1355.29412 L1355.29412,1807.05882 L112.941176,1807.05882 L112.941176,338.823529 L338.823529,338.823529 L338.823529,225.882353 L5.68434189e-14,225.882353 L5.68434189e-14,1920 L1421.47765,1920 C1466.65412,1920 1509.23294,1902.38118 1541.19529,1870.41882 L1870.41882,1541.30824 C1902.38118,1509.23294 1920,1466.65412 1920,1421.47765 L1920,225.882353 L1016.47059,225.882353 Z" stroke="none" stroke-width="1" fill-rule="evenodd"/>
</svg>

<svg viewBox="0 0 1920 1920" xmlns="http://www.w3.org/2000/svg">
    <path d="m1783.68 1468.235-315.445 315.445v-315.445h315.445Zm-541.327-338.823v112.94h-903.53v-112.94h903.53Zm338.936-338.824V903.53H338.824V790.59h1242.465ZM621.176 0c93.403 0 169.412 76.01 169.412 169.412 0 26.09-6.437 50.484-16.94 72.62L999.98 468.255l-79.962 79.962-226.221-226.334c-22.137 10.504-46.532 16.942-72.622 16.942-93.402 0-169.411-76.01-169.411-169.412C451.765 76.009 527.775 0 621.176 0Zm395.295 225.882v112.942h790.588v1016.47h-451.765v451.765H112.941V338.824h225.883V225.882H0V1920h1421.478c45.176 0 87.755-17.619 119.717-49.581l329.224-329.11c31.962-32.076 49.581-74.655 49.581-119.831V225.882h-903.53Z" fill-rule="evenodd"/>
</svg>
